inst/assets/svg/wi-night-alt-cloudy-windy.svg

<?xml version="1.0" encoding="UTF-8"?>
<svg xmlns="http://www.w3.org/2000/svg" xmlns:xlink="http://www.w3.org/1999/xlink" width="30pt" height="30pt" viewBox="0 0 30 30" version="1.1">
<g id="surface611">
<path style=" stroke:none;fill-rule:nonzero;fill:rgb(0%,0%,0%);fill-opacity:1;" d="M 2.351563 21.050781 C 2.351563 21.289063 2.429688 21.480469 2.601563 21.640625 C 2.769531 21.800781 2.980469 21.871094 3.230469 21.871094 L 12.628906 21.871094 C 12.871094 21.871094 13.058594 21.789063 13.21875 21.640625 C 13.378906 21.480469 13.449219 21.289063 13.449219 21.050781 C 13.449219 20.800781 13.371094 20.601563 13.21875 20.441406 C 13.058594 20.28125 12.871094 20.199219 12.628906 20.199219 L 3.230469 20.199219 C 2.980469 20.199219 2.769531 20.28125 2.601563 20.441406 C 2.429688 20.601563 2.351563 20.800781 2.351563 21.050781 Z M 4.980469 18 C 4.980469 18.238281 5.070313 18.441406 5.238281 18.601563 C 5.398438 18.769531 5.601563 18.851563 5.839844 18.851563 L 15.261719 18.851563 C 15.488281 18.851563 15.691406 18.769531 15.851563 18.601563 C 16.011719 18.429688 16.089844 18.230469 16.089844 18 C 16.089844 17.769531 16.011719 17.570313 15.859375 17.410156 C 15.710938 17.25 15.511719 17.171875 15.269531 17.171875 L 5.851563 17.171875 C 5.609375 17.171875 5.410156 17.25 5.238281 17.410156 C 5.070313 17.570313 4.980469 17.769531 4.980469 18 Z M 6.019531 15.660156 C 6.019531 15.75 6.078125 15.800781 6.199219 15.800781 L 7.628906 15.800781 C 7.71875 15.800781 7.789063 15.75 7.851563 15.660156 C 8.078125 15.121094 8.421875 14.671875 8.890625 14.308594 C 9.359375 13.949219 9.878906 13.75 10.46875 13.710938 L 11.019531 13.640625 C 11.140625 13.640625 11.199219 13.578125 11.199219 13.46875 L 11.269531 12.949219 C 11.378906 11.859375 11.839844 10.949219 12.648438 10.230469 C 13.46875 9.5 14.421875 9.140625 15.519531 9.140625 C 16.609375 9.140625 17.558594 9.5 18.359375 10.21875 C 19.160156 10.941406 19.628906 11.839844 19.769531 12.929688 L 19.851563 13.511719 C 19.851563 13.621094 19.910156 13.679688 20.03125 13.679688 L 21.640625 13.679688 C 22.550781 13.679688 23.320313 14 23.960938 14.640625 C 24.601563 15.28125 24.921875 16.050781 24.921875 16.949219 C 24.921875 17.828125 24.601563 18.601563 23.949219 19.238281 C 23.300781 19.890625 22.539063 20.210938 21.648438 20.210938 L 14.738281 20.210938 C 14.628906 20.210938 14.570313 20.269531 14.570313 20.378906 L 14.570313 21.71875 C 14.570313 21.828125 14.628906 21.890625 14.738281 21.890625 L 21.648438 21.890625 C 22.550781 21.890625 23.378906 21.671875 24.140625 21.230469 C 24.898438 20.789063 25.511719 20.191406 25.949219 19.429688 C 26.390625 18.671875 26.621094 17.839844 26.621094 16.941406 C 26.621094 16.039063 26.398438 15.21875 25.96875 14.46875 C 26.691406 13.828125 27.191406 12.96875 27.480469 11.890625 L 27.660156 11.210938 C 27.671875 11.199219 27.671875 11.179688 27.671875 11.140625 C 27.671875 11.058594 27.621094 11.011719 27.519531 10.980469 L 26.898438 10.761719 C 26.460938 10.628906 26.070313 10.441406 25.738281 10.191406 C 25.398438 9.941406 25.140625 9.660156 24.941406 9.351563 C 24.738281 9.039063 24.601563 8.730469 24.5 8.410156 C 24.398438 8.089844 24.351563 7.78125 24.351563 7.460938 C 24.351563 7.21875 24.390625 6.929688 24.460938 6.589844 L 24.589844 5.980469 C 24.628906 5.890625 24.589844 5.808594 24.460938 5.75 L 23.621094 5.5 C 23.179688 5.390625 22.769531 5.339844 22.371094 5.339844 C 21.988281 5.339844 21.621094 5.378906 21.238281 5.46875 C 20.859375 5.558594 20.46875 5.691406 20.058594 5.878906 C 19.648438 6.058594 19.261719 6.328125 18.878906 6.679688 C 18.5 7.03125 18.171875 7.429688 17.890625 7.898438 C 17.121094 7.578125 16.320313 7.421875 15.519531 7.421875 C 14.109375 7.421875 12.859375 7.859375 11.769531 8.738281 C 10.679688 9.621094 9.988281 10.738281 9.691406 12.121094 C 8.820313 12.320313 8.058594 12.730469 7.410156 13.339844 C 6.761719 13.960938 6.300781 14.691406 6.050781 15.550781 L 6.050781 15.578125 C 6.03125 15.589844 6.019531 15.621094 6.019531 15.660156 Z M 6.75 24.148438 C 6.75 24.390625 6.828125 24.589844 7 24.75 C 7.160156 24.921875 7.359375 25 7.601563 25 L 17.03125 25 C 17.269531 25 17.46875 24.921875 17.640625 24.75 C 17.808594 24.578125 17.890625 24.378906 17.890625 24.148438 C 17.890625 23.921875 17.808594 23.71875 17.640625 23.558594 C 17.46875 23.398438 17.269531 23.320313 17.03125 23.320313 L 7.601563 23.320313 C 7.359375 23.320313 7.160156 23.398438 7 23.558594 C 6.828125 23.71875 6.75 23.921875 6.75 24.148438 Z M 19.328125 8.78125 C 19.671875 8.230469 20.121094 7.800781 20.679688 7.5 C 21.230469 7.199219 21.800781 7.050781 22.378906 7.058594 C 22.488281 7.058594 22.578125 7.058594 22.628906 7.070313 L 22.628906 7.308594 C 22.628906 8.28125 22.890625 9.210938 23.421875 10.101563 C 23.949219 10.980469 24.671875 11.648438 25.589844 12.078125 C 25.421875 12.480469 25.160156 12.839844 24.828125 13.148438 C 23.949219 12.359375 22.878906 11.96875 21.628906 11.96875 L 21.308594 11.96875 C 21.058594 10.769531 20.398438 9.710938 19.328125 8.78125 Z M 19.328125 8.78125 "/>
</g>
</svg>

<?xml version="1.0" encoding="utf-8"?>
<!-- Generator: Adobe Illustrator 22.0.1, SVG Export Plug-In . SVG Version: 6.00 Build 0)  -->
<svg version="1.1" id="Layer_1" xmlns="http://www.w3.org/2000/svg" xmlns:xlink="http://www.w3.org/1999/xlink" x="0px" y="0px"
	 viewBox="0 0 30 30" style="enable-background:new 0 0 30 30;" xml:space="preserve">
<path d="M2.35,21.05c0,0.24,0.08,0.43,0.25,0.59c0.17,0.16,0.38,0.23,0.63,0.23h9.4c0.24,0,0.43-0.08,0.59-0.23
	c0.16-0.16,0.23-0.35,0.23-0.59c0-0.25-0.08-0.45-0.23-0.61c-0.16-0.16-0.35-0.24-0.59-0.24h-9.4c-0.25,0-0.46,0.08-0.63,0.24
	S2.35,20.8,2.35,21.05z M4.98,18c0,0.24,0.09,0.44,0.26,0.6c0.16,0.17,0.36,0.25,0.6,0.25h9.42c0.23,0,0.43-0.08,0.59-0.25
	c0.16-0.17,0.24-0.37,0.24-0.6c0-0.23-0.08-0.43-0.23-0.59s-0.35-0.24-0.59-0.24H5.85c-0.24,0-0.44,0.08-0.61,0.24
	C5.07,17.57,4.98,17.77,4.98,18z M6.02,15.66c0,0.09,0.06,0.14,0.18,0.14h1.43c0.09,0,0.16-0.05,0.22-0.14
	c0.23-0.54,0.57-0.99,1.04-1.35c0.47-0.36,0.99-0.56,1.58-0.6l0.55-0.07c0.12,0,0.18-0.06,0.18-0.17l0.07-0.52
	c0.11-1.09,0.57-2,1.38-2.72c0.82-0.73,1.77-1.09,2.87-1.09c1.09,0,2.04,0.36,2.84,1.08c0.8,0.72,1.27,1.62,1.41,2.71l0.08,0.58
	c0,0.11,0.06,0.17,0.18,0.17h1.61c0.91,0,1.68,0.32,2.32,0.96c0.64,0.64,0.96,1.41,0.96,2.31c0,0.88-0.32,1.65-0.97,2.29
	c-0.65,0.65-1.41,0.97-2.3,0.97h-6.91c-0.11,0-0.17,0.06-0.17,0.17v1.34c0,0.11,0.06,0.17,0.17,0.17h6.91c0.9,0,1.73-0.22,2.49-0.66
	c0.76-0.44,1.37-1.04,1.81-1.8c0.44-0.76,0.67-1.59,0.67-2.49s-0.22-1.72-0.65-2.47c0.72-0.64,1.22-1.5,1.51-2.58l0.18-0.68
	c0.01-0.01,0.01-0.03,0.01-0.07c0-0.08-0.05-0.13-0.15-0.16l-0.62-0.22c-0.44-0.13-0.83-0.32-1.16-0.57
	c-0.34-0.25-0.6-0.53-0.8-0.84c-0.2-0.31-0.34-0.62-0.44-0.94c-0.1-0.32-0.15-0.63-0.15-0.95c0-0.24,0.04-0.53,0.11-0.87l0.13-0.61
	c0.04-0.09,0-0.17-0.13-0.23L23.62,5.5c-0.44-0.11-0.85-0.16-1.25-0.16c-0.38,0-0.75,0.04-1.13,0.13s-0.77,0.22-1.18,0.41
	c-0.41,0.18-0.8,0.45-1.18,0.8c-0.38,0.35-0.71,0.75-0.99,1.22c-0.77-0.32-1.57-0.48-2.37-0.48c-1.41,0-2.66,0.44-3.75,1.32
	s-1.78,2-2.08,3.38c-0.87,0.2-1.63,0.61-2.28,1.22c-0.65,0.62-1.11,1.35-1.36,2.21v0.03C6.03,15.59,6.02,15.62,6.02,15.66z
	 M6.75,24.15c0,0.24,0.08,0.44,0.25,0.6C7.16,24.92,7.36,25,7.6,25h9.43c0.24,0,0.44-0.08,0.61-0.25c0.17-0.17,0.25-0.37,0.25-0.6
	c0-0.23-0.08-0.43-0.25-0.59c-0.17-0.16-0.37-0.24-0.61-0.24H7.6c-0.24,0-0.44,0.08-0.6,0.24C6.83,23.72,6.75,23.92,6.75,24.15z
	 M19.33,8.78c0.34-0.55,0.79-0.98,1.35-1.28c0.55-0.3,1.12-0.45,1.7-0.44c0.11,0,0.2,0,0.25,0.01v0.24c0,0.97,0.26,1.9,0.79,2.79
	c0.53,0.88,1.25,1.55,2.17,1.98c-0.17,0.4-0.43,0.76-0.76,1.07c-0.88-0.79-1.95-1.18-3.2-1.18h-0.32
	C21.06,10.77,20.4,9.71,19.33,8.78z"/>
</svg>
